X:1
T:Title
%%score { 1 | ( 2 3 ) }
L:1/8
Q:1/4=100
M:4/4
K:Bb
V:1 treble nm="Grand Piano"
V:2 bass 
V:3 bass 
V:1
 [DF]FFF F2 DE | [EG]2 F2 F4 | B2 A2 A4 | [Ec]2 [DB]2 [DB]4 | [DF]FFF F2 DE | [EG]2 F2 F4 | %6
w: E.~E.~Meyer * * * * * *||||||
 BBAB d2 c2 |[M:3/4] [B,DB]6 |[M:1/4] F2 |[M:4/4] cccc d2 c2 | [Ec]2 [DB]2 [DF]4 | F2 E2 E4 | %12
w: ||||||
[M:3/4] [EG]2 [DF]2 [DF]2 |[M:1/4] F2 |[M:4/4] cccc d2 c2 | [Ec]2 [DB]2 [DF]3 [DF] | %16
w: ||||
 [EG][EG][EG][EG] A2 GA | [DB]6 z2 |] %18
w: ||
V:2
 z DDD D2 B,C | z2 D2 D4 | [F,D]2 [F,C]2 [F,C]4 | [B,,F,]2 [B,,F,]2 [B,,F,]4 | %4
 z[K:treble] DDD D2 B,C | z2 D2 D4 | [F,D][F,D][F,C][F,D] [F,B,F]2 [F,A,E]2 |[M:3/4] B,,6 | %8
[M:1/4] F,2 |[M:4/4] [F,A,E][F,A,E][F,A,E][F,A,E] [F,B,F]2 [F,A,E]2 | [B,,B,]2 [B,,F,]2 [B,,B,]4 | %11
 [F,B,D]2 [F,A,C]2 [F,A,C]4 |[M:3/4] [B,,B,]2 [B,,B,]2 [B,,B,]2 |[M:1/4] F,2 | %14
[M:4/4] [F,A,E][F,A,E][F,A,E][F,A,E] [F,B,F]2 [F,A,E]2 | [B,,B,]2 [B,,F,]2 [B,,B,]3 [B,,B,] | %16
 [E,B,][E,B,][C,C][C,C] [F,CE]2 [F,CE]2 | [B,,B,]6 z2 |] %18
V:3
 B,,8 | B,,8 | x8 | x8 | B,,8[K:treble] | B,,8 | x8 |[M:3/4] x6 |[M:1/4] x2 |[M:4/4] x8 | x8 | x8 | %12
[M:3/4] x6 |[M:1/4] x2 |[M:4/4] x8 | x8 | x8 | x8 |] %18

